fs/text_number_list_rotate_270_20_regular.svg

<svg viewBox="0 0 20 20" fill="none" xmlns="http://www.w3.org/2000/svg" height="1em" width="1em">
  <path d="M1.01325 4.39135C1.06653 4.16577 1.26799 4.00641 1.49988 4.00641L5.49988 4.00641C5.77602 4.00641 5.99988 4.23016 5.99988 4.50618C5.99988 4.78219 5.77602 5.00594 5.49988 5.00594H2.9181C3.11079 5.22393 3.29718 5.4823 3.44709 5.78197C3.57058 6.02885 3.47047 6.32905 3.22348 6.45248C2.97649 6.57592 2.67616 6.47585 2.55266 6.22898C2.34586 5.81556 2.02865 5.49404 1.75003 5.27125C1.61249 5.16128 1.48918 5.07921 1.40189 5.02551C1.36162 5.00074 1.32085 4.97657 1.27895 4.9546C1.07477 4.8467 0.959243 4.62003 1.01325 4.39135ZM8.35349 6.35895C8.15825 6.55413 7.84166 6.55416 7.64639 6.359L7.64516 6.35777L7.64375 6.35635L7.64038 6.35292L7.63152 6.3437C7.62471 6.33651 7.6161 6.32725 7.60596 6.31594C7.58572 6.29334 7.55924 6.26244 7.52868 6.22358C7.46775 6.1461 7.38944 6.03551 7.31184 5.89457C7.15689 5.61316 6.99985 5.20138 6.99988 4.68898L6.99995 4.68057C7.00626 4.30653 7.10332 3.90052 7.34502 3.57428C7.60036 3.22964 7.99553 3.00698 8.49997 3.00698C9.04771 3.00698 9.43086 3.24916 9.7044 3.57725C9.91351 3.82806 10.0715 4.1499 10.2 4.41173C10.2206 4.45374 10.2405 4.49423 10.2597 4.53267C10.4153 4.84379 10.5524 5.0797 10.7347 5.24534C10.8079 5.31178 10.8933 5.3713 11 5.41661V3.50675C11 3.23074 11.2239 3.00698 11.5 3.00698C11.7761 3.00698 12 3.2313 12 3.50731V6.00559C12 6.2816 11.7761 6.50535 11.5 6.50535C10.8808 6.50535 10.4157 6.30626 10.0621 5.98494C9.72875 5.68206 9.52213 5.29326 9.36526 4.97967C9.34015 4.92947 9.31608 4.88087 9.29339 4.83504C9.15961 4.5649 9.06232 4.36843 8.93618 4.21714C8.8191 4.0767 8.70224 4.00652 8.49997 4.00652C8.31935 4.00652 8.21956 4.07342 8.14866 4.16912C8.06465 4.28252 8.00441 4.46609 7.99988 4.69325C8.00073 4.99573 8.09329 5.24076 8.18792 5.41263C8.23533 5.49874 8.28204 5.56414 8.31488 5.60589C8.3312 5.62665 8.34379 5.64118 8.35089 5.6491L8.35691 5.65567C8.54871 5.85109 8.54758 6.16493 8.35349 6.35895ZM14.9999 4.75606C14.9999 5.03207 15.2237 5.25583 15.4999 5.25583C15.776 5.25583 15.9999 5.03207 15.9999 4.75606C15.9999 4.41343 16.0966 4.22409 16.183 4.12871C16.2683 4.03449 16.3743 3.99581 16.4811 3.99981C16.6746 4.00706 16.9999 4.18561 16.9999 4.75606C16.9999 5.16837 16.8982 5.38191 16.8339 5.47837C16.8001 5.52891 16.7709 5.55607 16.7579 5.56688L16.7528 5.57097C16.5231 5.70124 16.4332 5.99008 16.5527 6.22898C16.6762 6.47585 16.9765 6.57592 17.2235 6.45248L17.2249 6.45177L17.2264 6.45102L17.2295 6.44944L17.2362 6.4459L17.252 6.43723C17.2635 6.43074 17.2768 6.42278 17.2917 6.41318C17.3216 6.39399 17.3579 6.36826 17.3981 6.33475C17.4789 6.26747 17.5746 6.16969 17.6659 6.03281C17.8516 5.75445 17.9999 5.34328 17.9999 4.75606C17.9999 3.72725 17.3251 3.03121 16.5186 3.00098C16.1511 2.9872 15.7829 3.11895 15.4999 3.39721C15.2168 3.11895 14.8486 2.9872 14.4811 3.00098C13.6746 3.03121 12.9999 3.72725 12.9999 4.75606C12.9999 5.34328 13.1482 5.75445 13.3339 6.03281C13.4251 6.16969 13.5209 6.26747 13.6017 6.33475C13.6419 6.36826 13.6782 6.39399 13.708 6.41318C13.7229 6.42278 13.7363 6.43074 13.7478 6.43723L13.7635 6.4459L13.7703 6.44944L13.7734 6.45102L13.7748 6.45177L13.7763 6.45248C14.0233 6.57592 14.3236 6.47585 14.4471 6.22898C14.5666 5.99008 14.4767 5.70124 14.2469 5.57097L14.2418 5.56688C14.2289 5.55607 14.1996 5.52891 14.1659 5.47837C14.1016 5.38191 13.9999 5.16837 13.9999 4.75606C13.9999 4.18561 14.3251 4.00706 14.5186 3.99981C14.6254 3.99581 14.7314 4.03449 14.8168 4.12871C14.9032 4.22409 14.9999 4.41343 14.9999 4.75606ZM14.2469 5.57097L14.2497 5.57299L14.2488 5.57239C14.2488 5.57239 14.2449 5.56996 14.2408 5.56762L14.2334 5.56356L14.2287 5.56114L14.2262 5.55984L14.2242 5.55882C14.2319 5.5627 14.2395 5.56675 14.2469 5.57097ZM9.5 18C9.22386 18 9 17.7762 9 17.5002L9 9.50396C9 9.22794 9.22386 9.00419 9.5 9.00419C9.77614 9.00419 10 9.22794 10 9.50396V17.5002C10 17.7762 9.77614 18 9.5 18ZM4.5 18C4.22386 18 4 17.7762 4 17.5002L4 9.50396C4 9.22794 4.22386 9.00419 4.5 9.00419C4.77614 9.00419 5 9.22794 5 9.50396L5 17.5002C5 17.7762 4.77614 18 4.5 18ZM14 17.5002C14 17.7762 14.2239 18 14.5 18C14.7761 18 15 17.7762 15 17.5002V9.50396C15 9.22794 14.7761 9.00419 14.5 9.00419C14.2239 9.00419 14 9.22794 14 9.50396V17.5002Z" fill="#212121"/>
</svg>

<svg viewBox="0 0 20 20" fill="none" xmlns="http://www.w3.org/2000/svg" height="1em" width="1em">
  <path d="M1.013 4.391a.5.5 0 0 1 .487-.385h4a.5.5 0 1 1 0 1H2.918c.193.218.38.476.53.776a.5.5 0 1 1-.895.447 2.955 2.955 0 0 0-.803-.958 3.506 3.506 0 0 0-.471-.316.507.507 0 0 1-.266-.564Zm7.34 1.968a.5.5 0 0 1-.707 0v-.001l-.002-.002-.004-.003-.008-.01a1.377 1.377 0 0 1-.103-.12A2.495 2.495 0 0 1 7 4.689v-.007c.006-.374.103-.78.345-1.107.255-.344.65-.567 1.155-.567.548 0 .93.242 1.204.57.21.251.367.573.496.835l.06.12c.155.312.292.548.475.713a.93.93 0 0 0 .265.172v-1.91a.5.5 0 1 1 1 0v2.499a.5.5 0 0 1-.5.5c-.62 0-1.084-.2-1.438-.521-.333-.303-.54-.692-.697-1.005l-.072-.145c-.133-.27-.23-.467-.357-.618a.509.509 0 0 0-.436-.21c-.18 0-.28.066-.351.162-.084.114-.145.297-.15.524a1.497 1.497 0 0 0 .352.956l.006.007a.5.5 0 0 1-.004.703ZM15 4.756a.5.5 0 0 0 1 0c0-.343.097-.532.183-.627a.374.374 0 0 1 .298-.13c.194.008.519.187.519.757 0 .412-.102.626-.166.722a.416.416 0 0 1-.076.089l-.005.004a.5.5 0 0 0 .47.881h.002l.001-.001.004-.002.006-.003.016-.009a1.067 1.067 0 0 0 .146-.102c.08-.068.177-.165.268-.302.186-.279.334-.69.334-1.277 0-1.029-.675-1.725-1.481-1.755a1.372 1.372 0 0 0-1.02.396 1.372 1.372 0 0 0-1.018-.396c-.806.03-1.481.726-1.481 1.755 0 .587.148.998.334 1.277a1.404 1.404 0 0 0 .374.38c.015.01.028.018.04.024l.016.009.006.003.003.002h.002l.001.001a.5.5 0 0 0 .47-.881l-.004-.004a.417.417 0 0 1-.076-.089c-.064-.096-.166-.31-.166-.722 0-.57.325-.749.519-.756a.374.374 0 0 1 .298.129c.086.095.183.284.183.627Zm-.753.815.003.002h-.001l-.008-.005-.008-.004-.004-.003-.003-.001-.002-.001a.5.5 0 0 1 .023.012ZM9.5 18a.5.5 0 0 1-.5-.5V9.504a.5.5 0 0 1 1 0V17.5a.5.5 0 0 1-.5.5Zm-5 0a.5.5 0 0 1-.5-.5V9.504a.5.5 0 0 1 1 0V17.5a.5.5 0 0 1-.5.5Zm9.5-.5a.5.5 0 0 0 1 0V9.504a.5.5 0 0 0-1 0V17.5Z" fill="#212121"/>
</svg>
